X:1
T:Title
L:1/8
M:4/4
K:F
V:1 treble nm="Grand Piano"
V:1
 z4 z A2 B | ^c2 B2- B A2 _A | A2 F2- F A2 _A | F2 B2 A4- | A4- A A2 B | ^c2 B2- B A2 _A | %6
 A2 F2- F E2 G | F2 E2 D4 |[M:5/8] F-F- F3 |[M:3/8] F2 E |[M:4/4] F2 D2- D F2 E | F2 D2- D F2 E | %12
 D2 G2 E4- | E4- E G2 ^F | G3 E- E G2 ^F | G3 E- E G2 A | BAcB A4- | A4- A F2 E | F2 D2- D F2 E | %19
 F2 D2- D F2 E | D2 G2 E4- | E4- E G2 ^F | G3 E- E G2 ^F | G2 E2- E B2 A | GFE^C D4- | D4 z4 |] %26

